resources/svg/play-list-fill.svg

<svg fill="currentColor" viewBox="0 0 24 24" xmlns="http://www.w3.org/2000/svg"><path d="M2 18H12V20H2V18ZM2 11H16V13H2V11ZM2 4H22V6H2V4ZM19 15.1707V9H24V11H21V18C21 19.6569 19.6569 21 18 21C16.3431 21 15 19.6569 15 18C15 16.3431 16.3431 15 18 15C18.3506 15 18.6872 15.0602 19 15.1707Z"/></svg>

<svg xmlns="http://www.w3.org/2000/svg" viewBox="0 0 24 24" fill="currentColor">
    <g>
        <path fill="none" d="M0 0h24v24H0z"/>
        <path d="M2 18h10v2H2v-2zm0-7h14v2H2v-2zm0-7h20v2H2V4zm17 11.17V9h5v2h-3v7a3 3 0 1 1-2-2.83z"/>
    </g>
</svg>
